svg/white/vtc.svg

<svg height="32" viewBox="0 0 32 32" width="32" xmlns="http://www.w3.org/2000/svg"><path d="m27.2507118 4.62364152c-.1030899-.09868269-.2073006-.19525384-.3126321-.28971344l-11.1554036 15.45300792-4.2624857-5.4380087h-6.93826505l-1.94992828 2.2205201h3.62777352l8.66130931 11.1932344c.2890243.2719005.576223.4078507.8615962.4078507s.5574562-.1359502.8162491-.4078507l13.694845-18.94239663c-.0945156-.19411151-.1928522-.3856226-.2950099-.57453325 1.2750949 2.29701938 2.0012397 4.94083358 2.0012397 7.75424808 0 8.836556-7.163444 16-16 16s-16-7.163444-16-16 7.163444-16 16-16c4.3863228 0 8.3603961 1.76504988 11.2507118 4.62364152z" fill="#fff" fill-rule="evenodd"/></svg>

<svg xmlns="http://www.w3.org/2000/svg" width="32" height="32" viewBox="0 0 32 32">
  <path fill="#FFF" fill-rule="evenodd" d="M27.2507118,4.62364152 C27.1476219,4.52495883 27.0434112,4.42838768 26.9380797,4.33392808 L15.7826761,19.786936 L11.5201904,14.3489273 L4.58192535,14.3489273 L2.63199707,16.5694474 L6.25977059,16.5694474 L14.9210799,27.7626818 C15.2101042,28.0345823 15.4973029,28.1705325 15.7826761,28.1705325 C16.0680493,28.1705325 16.3401323,28.0345823 16.5989252,27.7626818 L30.2937702,8.82028517 C30.1992546,8.62617366 30.100918,8.43466257 29.9987603,8.24575192 C31.2738552,10.5427713 32,13.1865855 32,16 C32,24.836556 24.836556,32 16,32 C7.163444,32 0,24.836556 0,16 C0,7.163444 7.163444,0 16,0 C20.3863228,0 24.3603961,1.76504988 27.2507118,4.62364152 Z"/>
</svg>
